icons4/lark.svg

<?xml version="1.0" encoding="UTF-8"?>
<svg xmlns="http://www.w3.org/2000/svg" xmlns:xlink="http://www.w3.org/1999/xlink" width="512px" height="512px" viewBox="0 0 512 512" version="1.1">
<g id="surface1">
<path style=" stroke:none;fill-rule:nonzero;fill:rgb(0%,83.921569%,72.54902%);fill-opacity:1;" d="M 274.179688 264.785156 C 274.523438 264.441406 274.867188 264.097656 275.210938 263.757812 C 275.894531 263.070312 276.582031 262.5 277.265625 261.8125 L 278.636719 260.441406 L 282.753906 256.328125 L 288.351562 250.726562 L 293.152344 245.929688 L 297.726562 241.472656 L 302.523438 236.785156 L 306.867188 232.441406 L 312.925781 226.386719 C 314.066406 225.242188 315.210938 224.097656 316.46875 223.070312 C 318.636719 221.015625 320.925781 219.070312 323.324219 217.242188 C 325.496094 215.527344 327.667969 213.929688 329.839844 212.328125 C 332.921875 210.15625 336.238281 207.984375 339.550781 206.042969 C 342.753906 204.101562 346.179688 202.386719 349.609375 200.671875 C 352.808594 199.070312 356.125 197.699219 359.4375 196.441406 C 361.265625 195.757812 363.210938 195.070312 365.039062 194.386719 C 365.953125 194.042969 366.980469 193.699219 367.894531 193.472656 C 359.324219 159.757812 343.667969 128.898438 322.636719 102.613281 C 318.523438 97.472656 312.238281 94.5 305.609375 94.5 L 130.753906 94.5 C 127.550781 94.5 126.296875 98.5 128.808594 100.441406 C 188.351562 144.101562 237.953125 200.328125 273.839844 265.242188 C 273.839844 265.015625 274.066406 264.902344 274.179688 264.785156 Z M 274.179688 264.785156 "/>
<path style=" stroke:none;fill-rule:nonzero;fill:rgb(20%,43.921569%,100%);fill-opacity:1;" d="M 204.789062 418.691406 C 295.078125 418.691406 373.820312 368.863281 414.847656 295.148438 C 416.335938 292.519531 417.707031 289.890625 419.078125 287.265625 C 417.019531 291.265625 414.734375 295.035156 412.21875 298.578125 C 411.304688 299.835938 410.390625 301.089844 409.476562 302.347656 C 408.335938 303.835938 407.078125 305.320312 405.820312 306.804688 C 404.789062 307.949219 403.761719 309.089844 402.734375 310.121094 C 400.675781 312.292969 398.390625 314.347656 396.105469 316.292969 C 394.847656 317.433594 393.589844 318.464844 392.21875 319.492188 C 390.621094 320.636719 389.132812 321.777344 387.535156 322.921875 C 386.503906 323.605469 385.476562 324.292969 384.449219 324.863281 C 383.304688 325.546875 382.277344 326.121094 381.132812 326.804688 C 378.847656 328.0625 376.5625 329.207031 374.164062 330.347656 C 372.105469 331.265625 370.046875 332.175781 367.875 332.863281 C 365.589844 333.664062 363.304688 334.464844 360.90625 335.148438 C 357.363281 336.0625 353.820312 336.863281 350.164062 337.433594 C 347.535156 337.890625 344.90625 338.121094 342.164062 338.347656 C 339.304688 338.578125 336.5625 338.578125 333.707031 338.578125 C 330.621094 338.578125 327.417969 338.347656 324.21875 338.007812 C 321.933594 337.777344 319.535156 337.433594 317.132812 336.976562 C 315.078125 336.636719 313.019531 336.175781 310.964844 335.71875 C 309.933594 335.492188 308.789062 335.148438 307.761719 334.921875 C 304.789062 334.121094 301.707031 333.320312 298.734375 332.40625 C 297.246094 331.949219 295.761719 331.492188 294.277344 331.148438 C 292.105469 330.464844 289.820312 329.777344 287.648438 329.089844 C 285.820312 328.519531 283.992188 327.949219 282.277344 327.378906 C 280.5625 326.804688 278.847656 326.234375 277.132812 325.664062 C 275.992188 325.320312 274.847656 324.863281 273.589844 324.519531 C 272.21875 324.0625 270.734375 323.492188 269.363281 323.035156 C 268.335938 322.691406 267.304688 322.347656 266.390625 322.007812 C 264.449219 321.320312 262.390625 320.519531 260.449219 319.835938 C 259.304688 319.378906 258.164062 318.921875 257.019531 318.578125 C 255.535156 318.007812 253.933594 317.433594 252.449219 316.75 C 250.847656 316.0625 249.246094 315.492188 247.648438 314.804688 C 246.621094 314.347656 245.589844 314.007812 244.5625 313.546875 C 243.304688 312.976562 241.933594 312.519531 240.675781 311.949219 C 239.648438 311.492188 238.734375 311.148438 237.707031 310.691406 C 236.675781 310.234375 235.648438 309.777344 234.621094 309.320312 C 233.707031 308.976562 232.789062 308.519531 231.875 308.175781 C 231.078125 307.835938 230.277344 307.492188 229.363281 307.035156 C 228.5625 306.691406 227.648438 306.234375 226.847656 305.890625 C 225.933594 305.546875 225.132812 305.089844 224.335938 304.75 C 223.304688 304.292969 222.164062 303.71875 221.132812 303.265625 C 219.992188 302.691406 218.847656 302.234375 217.707031 301.664062 C 216.449219 301.089844 215.304688 300.519531 214.046875 299.949219 C 213.019531 299.492188 211.992188 298.921875 210.964844 298.464844 C 156.792969 271.492188 108.792969 235.378906 67.875 191.71875 C 65.820312 189.546875 62.164062 191.035156 62.164062 194.007812 L 62.277344 348.40625 L 62.277344 360.976562 C 62.277344 368.292969 65.820312 375.035156 71.875 379.148438 C 110.046875 403.949219 155.648438 418.691406 204.789062 418.691406 Z M 204.789062 418.691406 "/>
<path style=" stroke:none;fill-rule:nonzero;fill:rgb(7.45098%,23.529412%,60.392157%);fill-opacity:1;" d="M 414.839844 295.1875 C 414.839844 295.300781 414.726562 295.300781 414.726562 295.414062 L 414.839844 295.1875 L 415.640625 293.699219 C 415.296875 294.15625 415.066406 294.726562 414.839844 295.1875 Z M 414.839844 295.1875 "/>
<path style=" stroke:none;fill-rule:nonzero;fill:rgb(7.45098%,23.529412%,60.392157%);fill-opacity:1;" d="M 418.632812 288.136719 L 418.859375 287.679688 L 418.972656 287.449219 C 418.859375 287.792969 418.746094 288.019531 418.632812 288.136719 Z M 418.632812 288.136719 "/>
<path style=" stroke:none;fill-rule:nonzero;fill:rgb(7.45098%,23.529412%,60.392157%);fill-opacity:1;" d="M 470.035156 201.121094 C 451.75 192.089844 431.175781 187.0625 409.347656 187.0625 C 396.433594 187.0625 383.863281 188.890625 371.976562 192.203125 C 370.605469 192.546875 369.234375 193.003906 367.863281 193.460938 C 366.949219 193.804688 365.921875 194.035156 365.007812 194.375 C 363.0625 195.0625 361.234375 195.75 359.40625 196.433594 C 356.089844 197.691406 352.777344 199.175781 349.578125 200.664062 C 346.148438 202.261719 342.835938 204.089844 339.519531 206.035156 C 336.207031 207.976562 333.007812 210.035156 329.804688 212.320312 C 327.519531 213.921875 325.347656 215.519531 323.292969 217.234375 C 321.007812 219.0625 318.71875 221.003906 316.433594 223.0625 C 315.292969 224.203125 314.035156 225.234375 312.890625 226.375 L 306.835938 232.433594 L 302.492188 236.777344 L 297.691406 241.460938 L 293.121094 245.921875 L 288.320312 250.71875 L 277.234375 261.804688 C 276.546875 262.492188 275.863281 263.175781 275.175781 263.75 C 274.835938 264.089844 274.492188 264.433594 274.148438 264.777344 C 273.691406 265.234375 273.121094 265.804688 272.546875 266.261719 C 271.976562 266.832031 271.40625 267.292969 270.835938 267.863281 C 255.863281 281.574219 239.175781 293.460938 221.007812 303.175781 C 222.035156 303.632812 223.175781 304.203125 224.207031 304.664062 C 225.007812 305.003906 225.921875 305.460938 226.71875 305.804688 C 227.519531 306.148438 228.433594 306.605469 229.234375 306.949219 C 230.035156 307.292969 230.835938 307.632812 231.75 308.089844 C 232.664062 308.433594 233.578125 308.890625 234.492188 309.234375 C 235.519531 309.691406 236.546875 310.148438 237.578125 310.605469 C 238.605469 311.0625 239.519531 311.40625 240.546875 311.863281 C 241.804688 312.433594 243.175781 312.890625 244.433594 313.460938 C 245.464844 313.921875 246.492188 314.261719 247.519531 314.71875 C 249.121094 315.40625 250.71875 315.976562 252.320312 316.664062 C 253.804688 317.234375 255.40625 317.804688 256.890625 318.492188 C 258.035156 318.949219 259.175781 319.40625 260.320312 319.75 C 262.265625 320.433594 264.320312 321.234375 266.265625 321.921875 C 267.292969 322.261719 268.320312 322.605469 269.234375 322.949219 C 270.605469 323.40625 272.089844 323.976562 273.464844 324.433594 C 274.605469 324.777344 275.75 325.234375 277.007812 325.574219 C 278.71875 326.148438 280.433594 326.71875 282.148438 327.292969 C 283.976562 327.863281 285.804688 328.433594 287.519531 329.003906 C 289.691406 329.691406 291.976562 330.378906 294.148438 331.0625 C 295.636719 331.519531 297.121094 331.976562 298.605469 332.320312 C 301.578125 333.234375 304.546875 334.035156 307.636719 334.832031 C 308.664062 335.175781 309.804688 335.40625 310.835938 335.632812 C 312.890625 336.089844 314.949219 336.546875 317.007812 336.890625 C 319.40625 337.347656 321.691406 337.691406 324.089844 337.921875 C 327.292969 338.261719 330.492188 338.492188 333.578125 338.492188 C 336.433594 338.492188 339.292969 338.492188 342.035156 338.261719 C 344.664062 338.035156 347.40625 337.804688 350.035156 337.347656 C 353.691406 336.777344 357.234375 335.976562 360.777344 335.0625 C 363.175781 334.378906 365.464844 333.691406 367.75 332.777344 C 369.921875 331.976562 371.976562 331.175781 374.035156 330.261719 C 376.433594 329.234375 378.71875 327.976562 381.007812 326.71875 C 382.148438 326.148438 383.175781 325.460938 384.320312 324.777344 C 385.347656 324.089844 386.378906 323.519531 387.40625 322.832031 C 389.007812 321.804688 390.605469 320.664062 392.089844 319.40625 C 393.464844 318.375 394.71875 317.347656 395.976562 316.203125 C 398.265625 314.261719 400.433594 312.203125 402.605469 310.035156 C 403.636719 309.003906 404.664062 307.863281 405.691406 306.71875 C 406.949219 305.234375 408.207031 303.75 409.347656 302.261719 C 410.265625 301.003906 411.175781 299.75 412.089844 298.492188 C 414.605469 294.949219 416.890625 291.175781 418.949219 287.292969 L 421.234375 282.605469 L 442.378906 240.433594 L 442.378906 240.546875 C 449.121094 225.804688 458.605469 212.433594 470.035156 201.121094 Z M 470.035156 201.121094 "/>
</g>
</svg>

<svg xmlns="http://www.w3.org/2000/svg" viewBox="62.16 94.5 407.87 324.19"><path d="M274.18 264.785q.515-.517 1.03-1.027c.685-.688 1.372-1.258 2.056-1.945l1.37-1.372 4.118-4.113 5.598-5.601 4.8-4.797 4.575-4.457 4.796-4.688 4.344-4.344 6.059-6.054c1.14-1.145 2.285-2.29 3.543-3.317 2.168-2.054 4.457-4 6.855-5.828 2.172-1.715 4.344-3.312 6.516-4.914 3.082-2.172 6.398-4.344 9.71-6.285 3.204-1.941 6.63-3.656 10.06-5.371 3.199-1.602 6.515-2.973 9.827-4.23 1.829-.684 3.774-1.372 5.602-2.055.914-.344 1.941-.688 2.856-.914-8.57-33.715-24.227-64.575-45.258-90.86-4.114-5.14-10.399-8.113-17.028-8.113H130.754c-3.203 0-4.457 4-1.945 5.941 59.543 43.66 109.144 99.887 145.03 164.801 0-.226.227-.34.34-.457m0 0" style="stroke:none;fill-rule:nonzero;fill:#00d6b9;fill-opacity:1"/><path d="M204.79 418.691c90.288 0 169.03-49.828 210.058-123.543 1.488-2.628 2.859-5.257 4.23-7.882q-3.087 6-6.86 11.312l-2.741 3.77c-1.141 1.488-2.399 2.972-3.657 4.457-1.03 1.144-2.058 2.285-3.086 3.316-2.058 2.172-4.343 4.227-6.629 6.172a53 53 0 0 1-3.886 3.2c-1.598 1.144-3.086 2.284-4.684 3.429-1.031.683-2.058 1.371-3.086 1.941-1.144.684-2.172 1.258-3.316 1.942a131 131 0 0 1-6.969 3.543c-2.059.918-4.117 1.828-6.289 2.515-2.285.801-4.57 1.602-6.969 2.285-3.543.914-7.086 1.715-10.742 2.286-2.629.457-5.258.687-8 .914-2.86.23-5.601.23-8.457.23-3.086 0-6.289-.23-9.488-.57a83 83 0 0 1-7.086-1.031c-2.055-.34-4.113-.801-6.168-1.258-1.031-.227-2.176-.57-3.203-.797-2.973-.8-6.055-1.602-9.028-2.516-1.488-.457-2.972-.914-4.457-1.258-2.172-.683-4.457-1.37-6.629-2.058-1.828-.57-3.656-1.14-5.37-1.711q-2.573-.86-5.145-1.715c-1.14-.344-2.285-.8-3.543-1.144-1.371-.457-2.856-1.028-4.227-1.485-1.027-.344-2.058-.687-2.972-1.027-1.942-.688-4-1.488-5.942-2.172-1.144-.457-2.285-.914-3.43-1.258-1.484-.57-3.085-1.144-4.57-1.828-1.601-.687-3.203-1.258-4.8-1.945-1.028-.457-2.06-.797-3.087-1.258-1.257-.57-2.628-1.027-3.886-1.598-1.028-.457-1.942-.8-2.969-1.258l-3.086-1.37c-.914-.344-1.832-.801-2.746-1.145a44 44 0 0 1-2.512-1.14c-.8-.345-1.715-.802-2.515-1.145-.914-.344-1.715-.801-2.512-1.141-1.031-.457-2.172-1.031-3.203-1.484-1.14-.575-2.285-1.032-3.426-1.602-1.258-.574-2.402-1.144-3.66-1.715-1.027-.457-2.055-1.027-3.082-1.484-54.172-26.973-102.172-63.086-143.09-106.746-2.055-2.172-5.71-.684-5.71 2.289l.112 154.398v12.57c0 7.317 3.543 14.06 9.598 18.172 38.172 24.801 83.773 39.543 132.914 39.543m0 0" style="stroke:none;fill-rule:nonzero;fill:#3370ff;fill-opacity:1"/><path d="M414.84 295.188c0 .113-.113.113-.113.226zl.8-1.489c-.343.457-.574 1.028-.8 1.488m3.793-7.05.226-.457.114-.23q-.17.513-.34.687m0 0" style="stroke:none;fill-rule:nonzero;fill:#133c9a;fill-opacity:1"/><path d="M470.035 201.121c-18.285-9.031-38.86-14.059-60.687-14.059-12.914 0-25.485 1.829-37.371 5.141-1.372.344-2.743.8-4.114 1.258-.914.344-1.941.574-2.855.914-1.945.688-3.774 1.375-5.602 2.059-3.316 1.257-6.629 2.742-9.828 4.23-3.43 1.598-6.742 3.426-10.058 5.371a128 128 0 0 0-9.715 6.285c-2.285 1.602-4.457 3.2-6.512 4.914a154 154 0 0 0-6.86 5.828c-1.14 1.141-2.398 2.172-3.542 3.313l-6.055 6.059-4.344 4.343-4.8 4.684-4.57 4.46-4.802 4.798-11.086 11.086c-.687.687-1.37 1.37-2.058 1.945l-1.028 1.027c-.457.457-1.027 1.028-1.601 1.485-.57.57-1.14 1.031-1.711 1.601a244.4 244.4 0 0 1-49.828 35.313c1.027.457 2.168 1.027 3.199 1.488.8.34 1.715.797 2.512 1.14.8.344 1.715.801 2.515 1.145.801.344 1.602.684 2.516 1.14.914.345 1.828.802 2.742 1.145l3.086 1.371c1.027.457 1.942.801 2.969 1.258 1.258.57 2.629 1.028 3.887 1.598 1.03.46 2.058.8 3.086 1.258 1.601.687 3.199 1.258 4.8 1.945 1.485.57 3.086 1.14 4.57 1.828 1.145.457 2.286.914 3.43 1.258 1.946.684 4 1.484 5.946 2.172a81 81 0 0 1 2.968 1.027c1.371.457 2.856 1.028 4.23 1.485 1.141.343 2.286.8 3.544 1.14q2.567.86 5.14 1.719c1.829.57 3.657 1.14 5.372 1.71 2.171.688 4.457 1.376 6.628 2.06 1.489.457 2.973.914 4.457 1.257 2.973.914 5.942 1.715 9.032 2.512 1.027.344 2.168.574 3.199.8 2.055.458 4.113.915 6.172 1.259 2.398.457 4.683.8 7.082 1.03 3.203.34 6.402.571 9.488.571 2.856 0 5.715 0 8.457-.23 2.63-.227 5.371-.457 8-.914 3.656-.57 7.2-1.371 10.742-2.286 2.399-.683 4.688-1.37 6.973-2.285 2.172-.8 4.227-1.601 6.285-2.515 2.399-1.028 4.684-2.285 6.973-3.543 1.14-.57 2.168-1.258 3.312-1.942 1.028-.687 2.059-1.257 3.086-1.945 1.602-1.027 3.2-2.168 4.684-3.426a52 52 0 0 0 3.887-3.203c2.289-1.941 4.457-4 6.628-6.168 1.032-1.031 2.06-2.172 3.086-3.316 1.258-1.485 2.516-2.969 3.657-4.457.918-1.258 1.828-2.512 2.742-3.77 2.515-3.543 4.8-7.316 6.86-11.199l2.284-4.688 21.145-42.171v.113c6.742-14.742 16.226-28.113 27.656-39.426m0 0" style="stroke:none;fill-rule:nonzero;fill:#133c9a;fill-opacity:1"/></svg>
